src/dog-park-24.svg

<?xml version="1.0" encoding="UTF-8" standalone="no"?>
<svg xmlns="http://www.w3.org/2000/svg" width="24" height="24">
  <path opacity="0.3" fill="#FFF" d="m 6,3.96875 a 1.0165677,1.0165677 0 0 0 -0.90625,0.5625 l -1,2 A 1.0165677,1.0165677 0 0 0 4.03125,7.3125 l 0.875,2.625 C 4.2267643,10.949329 4.0072464,11.996205 4,12.8125 L 2.0625,17.625 A 1.0165677,1.0165677 0 0 0 3,19.03125 l 2,0 a 1.0165677,1.0165677 0 0 0 0.5,-0.15625 1.0165677,1.0165677 0 0 0 0.03125,0 A 1.0165677,1.0165677 0 0 0 6,19.03125 l 2,0 a 1.0165677,1.0165677 0 0 0 0.84375,-1.5625 c -0.294185,-0.464839 -0.253442,-0.90685 0,-1.625 0.161206,-0.45679 0.431254,-1.046941 0.6875,-1.59375 0.15469,0.06763 0.192131,0.05067 0.5,0.1875 0.370009,0.164449 1.11595,0.228914 1.71875,0.34375 L 11,17.75 a 1.0165677,1.0165677 0 0 0 1,1.28125 l 2,0 A 1.0165677,1.0165677 0 0 0 14.96875,18.25 l 0.125,0.21875 A 1.0165677,1.0165677 0 0 0 16,19.03125 l 2,0 A 1.0165677,1.0165677 0 0 0 18.5,17.125 c -0.590945,-0.340615 -0.773122,-0.658377 -0.96875,-1.1875 -0.178512,-0.482828 -0.280371,-1.203866 -0.46875,-2 l 0.40625,-2.03125 a 1.0165677,1.0165677 0 0 0 0.4375,-0.4375 c 0.06817,-0.136338 0.144524,-0.242837 0.75,-0.34375 C 19.261726,11.024087 20.25,11.03125 21.5,11.03125 a 1.0165677,1.0165677 0 0 0 0.96875,-0.71875 l 0.5,-1.5 a 1.0165677,1.0165677 0 0 0 -0.5,-1.21875 L 19.375,6.0625 19.71875,5.71875 A 1.0165677,1.0165677 0 0 0 19,3.96875 l -1,0 a 1.0165677,1.0165677 0 0 0 -0.46875,0.125 l -2,1 a 1.0165677,1.0165677 0 0 0 -0.4375,0.4375 l -1,2 a 1.0165677,1.0165677 0 0 0 0,0.03125 L 12.875,7.96875 8,7.96875 7.1875,6.875 7.90625,5.46875 A 1.0165677,1.0165677 0 0 0 7,3.96875 l -1,0 z"/>
  <path fill="#444444" d="m 16,6 2,-1 1,0 -1,1 0,0.5 4,2 -0.5,1.5 c -2.5,0 -4,0 -4.5,1 L 15,8 z"/>
  <path fill="#444444" d="m 16.5,11.5 -2,-3 L 13,9 7.5,9 6,7 7,5 6,5 5,7 6,10 c -1,1 -1,2 -1,3 l -2,5 2,0 C 4.5179283,16.6105 5.7533498,15.6156 6.5,14.5 L 6,18 8,18 c -1.0043724,-1.587 0.3998945,-3.3997 1,-5 1,0 1.5,1 4,1 l -1,4 2,0 c -0.876022,-1.1183 -0.0756,-1.8488 0.5,-3 l 1.5,3 2,0 c -1.578269,-0.9097 -1.583004,-2.332 -2,-4 z"/>
</svg>

<?xml version="1.0" encoding="UTF-8" standalone="no"?>
<svg
   xmlns:dc="http://purl.org/dc/elements/1.1/"
   xmlns:cc="http://creativecommons.org/ns#"
   xmlns:rdf="http://www.w3.org/1999/02/22-rdf-syntax-ns#"
   xmlns:svg="http://www.w3.org/2000/svg"
   xmlns="http://www.w3.org/2000/svg"
   xmlns:sodipodi="http://sodipodi.sourceforge.net/DTD/sodipodi-0.dtd"
   xmlns:inkscape="http://www.inkscape.org/namespaces/inkscape"
   width="24"
   height="24"
   id="svg3098"
   version="1.1"
   inkscape:version="0.48.4 r9939"
   sodipodi:docname="dog-park-24.svg">
  <metadata
     id="metadata3110">
    <rdf:RDF>
      <cc:Work
         rdf:about="">
        <dc:format>image/svg+xml</dc:format>
        <dc:type
           rdf:resource="http://purl.org/dc/dcmitype/StillImage" />
      </cc:Work>
    </rdf:RDF>
  </metadata>
  <defs
     id="defs3108" />
  <sodipodi:namedview
     pagecolor="#ffffff"
     bordercolor="#666666"
     borderopacity="1"
     objecttolerance="10"
     gridtolerance="10"
     guidetolerance="10"
     inkscape:pageopacity="0"
     inkscape:pageshadow="2"
     inkscape:window-width="1920"
     inkscape:window-height="1053"
     id="namedview3106"
     showgrid="false"
     showguides="true"
     inkscape:zoom="27.812867"
     inkscape:cx="4.4539659"
     inkscape:cy="12.657779"
     inkscape:window-x="0"
     inkscape:window-y="27"
     inkscape:window-maximized="1"
     inkscape:current-layer="svg3098" />
  <path
     style="fill:#444444;fill-opacity:1;stroke:#ffffff;stroke-linejoin:round;stroke-linecap:round;stroke-width:2;stroke-miterlimit:4;stroke-dasharray:none;opacity:0.3"
     id="path3974"
     d="M 6 5 L 5 7 L 6 10 C 5 11 5 12 5 13 L 3 18 L 5 18 C 4.5179283 16.6105 5.7533498 15.6156 6.5 14.5 L 6 18 L 8 18 C 6.9956276 16.413 8.3998945 14.6003 9 13 C 10 13 10.5 14 13 14 L 12 18 L 14 18 C 13.123978 16.8817 13.9244 16.1512 14.5 15 L 16 18 L 18 18 C 16.421731 17.0903 16.416996 15.668 16 14 L 16.5 11.5 L 14.5 8.5 L 13 9 L 7.5 9 L 6 7 L 7 5 L 6 5 z M 18 5 L 16 6 L 15 8 L 17 11 C 17.5 10 19 10 21.5 10 L 22 8.5 L 18 6.5 L 18 6 L 19 5 L 18 5 z " />
  <path
     d="M 6 5 L 5 7 L 6 10 C 5 11 5 12 5 13 L 3 18 L 5 18 C 4.5179283 16.6105 5.7533498 15.6156 6.5 14.5 L 6 18 L 8 18 C 6.9956276 16.413 8.3998945 14.6003 9 13 C 10 13 10.5 14 13 14 L 12 18 L 14 18 C 13.123978 16.8817 13.9244 16.1512 14.5 15 L 16 18 L 18 18 C 16.421731 17.0903 16.416996 15.668 16 14 L 16.5 11.5 L 14.5 8.5 L 13 9 L 7.5 9 L 6 7 L 7 5 L 6 5 z M 18 5 L 16 6 L 15 8 L 17 11 C 17.5 10 19 10 21.5 10 L 22 8.5 L 18 6.5 L 18 6 L 19 5 L 18 5 z "
     id="path3102"
     style="fill:#444444;fill-opacity:1" />
</svg>
